documentation/public/assets/images/slider-15-do-and-dont-8.svg

<svg width="256" height="43" viewBox="0 0 256 43" fill="none" xmlns="http://www.w3.org/2000/svg">
<rect y="6" width="256" height="4" rx="2" fill="#B0B0B0"/>
<rect y="6" width="128" height="4" rx="2" fill="#1E71F6"/>
<circle cx="132" cy="8" r="8" fill="#194CCC"/>
<path d="M128.205 43V41.9773L132.045 37.7727C132.496 37.2803 132.867 36.8523 133.159 36.4886C133.451 36.1212 133.667 35.7765 133.807 35.4545C133.951 35.1288 134.023 34.7879 134.023 34.4318C134.023 34.0227 133.924 33.6686 133.727 33.3693C133.534 33.0701 133.269 32.839 132.932 32.6761C132.595 32.5133 132.216 32.4318 131.795 32.4318C131.348 32.4318 130.958 32.5246 130.625 32.7102C130.295 32.892 130.04 33.1477 129.858 33.4773C129.68 33.8068 129.591 34.1932 129.591 34.6364H128.25C128.25 33.9545 128.407 33.3561 128.722 32.8409C129.036 32.3258 129.464 31.9242 130.006 31.6364C130.551 31.3485 131.163 31.2045 131.841 31.2045C132.523 31.2045 133.127 31.3485 133.653 31.6364C134.18 31.9242 134.593 32.3125 134.892 32.8011C135.191 33.2898 135.341 33.8333 135.341 34.4318C135.341 34.8598 135.263 35.2784 135.108 35.6875C134.956 36.0928 134.691 36.5455 134.312 37.0455C133.938 37.5417 133.417 38.1477 132.75 38.8636L130.136 41.6591V41.75H135.545V43H128.205Z" fill="#757575"/>
</svg>

<svg width="256" height="43" fill="none" xmlns="http://www.w3.org/2000/svg"><rect y="6" width="256" height="4" rx="2" fill="#B0B0B0"/><rect y="6" width="128" height="4" rx="2" fill="#1E71F6"/><circle cx="132" cy="8" r="8" fill="#194CCC"/><path d="M128.2 43v-1.02l3.84-4.2c.46-.5.83-.93 1.12-1.3.3-.36.5-.7.65-1.03.14-.32.21-.66.21-1.02a1.89 1.89 0 0 0-1.09-1.75 2.58 2.58 0 0 0-1.14-.25c-.44 0-.83.1-1.16.28-.34.18-.59.44-.77.77a2.4 2.4 0 0 0-.27 1.16h-1.34a3.27 3.27 0 0 1 1.76-3 3.87 3.87 0 0 1 1.83-.44c.68 0 1.29.15 1.81.44a3.15 3.15 0 0 1 1.69 2.79c0 .43-.08.85-.23 1.26-.15.4-.42.86-.8 1.36-.37.5-.9 1.1-1.56 1.81l-2.61 2.8v.09h5.4V43h-7.33Z" fill="#757575"/></svg>
